X:1
T:Gardiner, CM
T:Gardiner, CM
T:William Gardiner, 1812
T:Public Domain Courtesy of the Cyber Hymnal™
C:William Gardiner, 1812
Z:Public Domain
Z:Courtesy of the Cyber Hymnal™
%%score ( 1 2 ) ( 3 4 )
L:1/8
Q:1/4=200
M:4/4
K:A
V:1 treble 
V:2 treble 
V:3 bass 
V:4 bass 
V:1
 [CA]4 [EB]2 [EB]2 | [Ec]4 [Ae]4 | [Gd]4 [Ac]4 | [GB]6 [EB]2 | [Ec]4 (B2 A2) | [EG]4 [^DF]4 | %6
 E6 [EB]2 | [EB]4 (B2 c2) | [Fd]4 [EB]4 | [Ec]4 (B2 A2) | (A4 G2) [EG]2 | [EA]4 (B2 c2) | %12
 [FB]4 B4 | [CA]8 |] %14
V:2
 x8 | x8 | x8 | x8 | x4 E4 | x8 | E6 x2 | x4 F4 | x8 | x4 F4 | E6 x2 | x4 E4 | x4 (E2 D2) | x8 |] %14
V:3
 [A,,A,]4 [E,G,]2 [E,G,]2 | A,4 [CE]4 | [B,E]4 [A,E]4 | [E,E]6 [E,G,]2 | A,4 ([G,B,]2 [A,C]2) | %5
 B,4 (B,2 A,2) | [E,G,]6 [E,G,]2 | [E,G,]4 ([D,F,]2 [C,^A,]2) | [B,,B,]4 [E,G,]4 | %9
 (A,2 C2) [D,D]4 | (C4 B,2) [D,B,]2 | [C,A,]4 [B,,G,]2 [A,,A,]2 | [D,A,]4 [E,G,]4 | [A,,A,]8 |] %14
V:4
 x8 | A,4 x4 | x8 | x8 | A,4 x4 | B,4 B,,4 | x8 | x8 | x8 | A,4 x4 | E,6 x2 | x8 | x8 | x8 |] %14

